X:105
T:Planxty Elizabeth McCullough
T:The Golden Lamb
R:planxty
C: 2003, 2010 L.E. McCullough  
M:3/4
L:1/8
K:G
z4 DE|:G3 A GF|GE D2 EG|A3 B AG|
[1 A4 DE|G3 A GF|GE DE GA|G4 A2|G4 DE:|
[2 A4 GA|B3 A Bd|ge dB AF|G4 AF|G4 Bd|]
[|ed B^A Bd|B3 A AG|A3 B AG|E4 DE|G3 B df|gf ag fd|
e3 g Bd|e4 dc|B3 A Bd|AF D2 EF|GA BG ag|fe d2 cA|
BD GB AG|AD FA GF|G3 A BA|G4 Bd||
ef gf ed|e3 d BG|A3 B AG|E4 DE|G3 B df|gf ag fd|
e3 g Bd|e4 dc|B3 A Bd|AF D2 EF|GA BG ag|fe d2 cA|
BD GB AG|AD FA GF|G3 A BA|G4 GA|BD GB AG|AD FA GF|
Gg fe dc|(3Bcd GA B^A|BD GB AG|GD cD AF|G3 A GF|G6|]

